!!!!SEGMENT: pl-wnifc--13846--038_anonim--piesni-polskie-i-ruskie-ludu-galicyjskiego-38-jestem-krakowiaczek.krn
!!!kernsource:
!!!cenid: 18xx:3260
!!!COM: Anonim
!!!COM-rismid: pe30004985
!!!CDT:
!!!CNT:
!!!GTL: Pieśni polskie i ruskie ludu galicyjskiego
!!!OTL: 38. Jestem Krakowiaczek
!!!PDT: 1833
!!!AGN:
!!!SMS-siglum: PL-Wnifc
!!!SMS-shelfmark: 13846
!!!SMS-shelfwork: 038 G
!!!SMS-variant:
!!!SMS-altvar:
!!!NIFC-rismid: 1001036922
!!!URL-scan: http://repozytorium.nifc.pl/skany/pl-wnifc-nut--13846
!!!ONB-nifc:
!!!OMD: Krakowiak.
!!!key: A
**kern	**kern	**kern	**text
*part2	*part2	*part1	*part1
*staff3	*staff2	*staff1	*staff1
*I"Fortepian	*I"Fortepian	*I"Głos	*
*Ipiano	*Ipiano	*Ivox	*
*ICklav	*ICklav	*ICvox	*
*IGacmp	*IGacmp	*IGsolo	*
*clefF4	*clefG2	*clefG2	*
*k[f#c#g#]	*k[f#c#g#]	*k[f#c#g#]	*
*A:	*A:	*A:	*
*M2/4	*M2/4	*M2/4	*
=1	=1	=1	=1
!	!	!LO:TX:a:t=D.b.Б.\n30	!
4AAA/ 4AA/	8a\L 8cc#\	8cc#\	Je-
.	8b\J 8dd\	8dd\	-stem
4AA/ 4A/	4cc#\ 4ee\	4ee\	Kra-
=2	=2	=2	=2
!LO:TX:t=P:problem:mixed beam	!	!	!
8AA/L	8cc#\ 8ee\	8ee\	-ko-
8A\ 8c#\	4cc#\ 4ee\	4ee\	-wia-
8AA/	.	.	.
8A\J 8c#\	(16cc#\LL 16ee\	(16ee\LL	-czek,
.	16b#X\JJ) 16dd#X\	16dd#X\JJ)	.
!!LO:LB:g=original
=3	=3	=3	=3
!LO:TX:t=P:problem:mixed beam	!	!	!
8AA/L	8cc#\L 8ee\	8ee\	z tam-
8A\ 8c#\	8ee\J	8ee\	-tej
!	!LO:N:vis=16.	!LO:N:vis=16.	!
8AA/	(8.ddn\KL 8.ff#X\	(8.ff#\KL	Wy-
.	.	.	.
8A\J 8c#\	.	.	.
!	!LO:N:vis=8	!LO:N:vis=8	!
.	16cc#\J) 16ee\	16ee\J)	.
=4	=4	=4	=4
!LO:TX:t=P:problem:mixed beam	!	!	!
8EE/L	(16cc#\LL 16ee\	(16ee\LL	sły
.	16b\JJ) 16dd\	16dd\JJ)	.
8G#\ 8e\	4b\ 4dd\	4dd\	stro-
8E\	.	.	.
8G#\J 8e\	(16b\LL 16dd\	(16dd\LL	-ny,
.	16a\JJ) 16cc#\	16cc#\JJ)	.
=5	=5	=5	=5
8E\L	8g#\L 8b\	8b\	gdzie
8e\	8a\J 8cc#\	8cc#\	jo-
8E\	4b\ 4dd\	4dd\	-dło-
8e\J	.	.	.
!!LO:LB:g=original
=6	=6	=6	=6
8E\L	8b\ 8dd\	8dd\	-wy
8e\	4b\ 4dd\	4dd\	krza-
8E\	.	.	.
8e\J	16b\LL 16dd\	(16dd\LL	-czek,
.	16a#X\JJ 16cc#\	16cc#\JJ)	.
=7	=7	=7	=7
8E\L	(16b\LL 16dd\	(16dd\LL	na-
.	16a#X\JJ) 16cc#\	16cc#\JJ)	.
8G#\ 8e\	(16b\LL 16dd\	(16dd\LL	szej
.	16dd\JJ) 16ff#\	16ff#\JJ)	.
8E\	8.cc#\L 8.ee\	(8.ee\L	wsi
8e\J	.	.	.
.	16b\Jk 16dd\	16dd\Jk)	.
=8	=8	=8	=8
8A\L	8an\ 8cc#\	8cc#\	za-
8c#\ 8e\	4a\ 4cc#\	4cc#\	-go-
8A\	.	.	.
8c#\J 8e\	(16b\LL	(16b\LL	-ny.
.	16a\JJ)	16a\JJ)	.
!!LO:PB:g=original
==	==	==	==
*-	*-	*-	*-
!!!system-decoration: s1,{(s2,s3)}
!!!RDF**kern: < = below
!!!RDF**kern: > = above
!!!AIN: 1 piano 1 vox
!!!ENC: Marta Chmielewska
!!!END: 2021-11-10
